X:1
T: The Playful Porpoise
T: 8 x 32R 3C
P: Miss Rona McLachlan
C: Webster Craig
C: from Sylvia Miskoe, arr. Terry Traub 8-16-06
M: 4/4
L: 1/4
R: reel
K: G
|: d|"G"g g d c/B/|"C"e e "D"c A|"G"G B/d/ "A7"g a/g/|"D"f d d e/f/|"G"g g d c/B/|
"C"e e "D"c A|"Am"G F/G/ "D"A B/c/|"G"B G G :||: d|"G"B d g g/f/|"C"e g "G"d > B|
"G"G B/d/ "A7"g a/g/|"D"f d d B|"C"c d/e/ "D"A B/c/|"G"B d/g/ d B|"C"G F/G/ "D"A B/c/|"G"B GG :|
